X:1
T:Farewell, Dear Love
M:4/2
L:1/4
K:C
 d2 f2 e2 e a| g a f g e4| e2 e f g3 a| f g e e d2 z2| D2 D2 A,2 A, A,|\
 C A, D G, A,4| C2 C F, C2 E A,| D G, A,2 D4| g2 g g a c' b2| e a ^g a b2 a2|\
 z2 c/2d/2 e/2f/2 g2 d/2e/2 f/2g/2| a2 e/2f/2 g/2e/2 f d_d/2-B/2-d/2-=d/2|\
 C2 C B, A,2 ^G,2| A, A, E C B, E A,2| F,/2 G,/2A,/2 B,/2 C2 G,/2A,/2 _B,/2C/2 D2|\
 A,/2=B,/2 C/2D/2 E C D D, A,3/2 B,/2| e ag/2-f/2 e/2d/2 _d =d e2|\
 d4 z4| C F, G,2 A, _B, A,2| D4 z2||
